X:31
T:Haydon's Surprise
O:No 31 Pages 12-13 William Clarke of Feltwell  MS 1858
N:Bar 10: 4 quavers in MS changed to semiquavers
I:abc2nwc
M:2/4
L:1/16
K:G
G2G2 B2B2|d2d2 B4|c2c2 A2A2|F2F2 D4|
G2G2 B2B2|d2d2 B4|g2g2 ^c2c2|d4D2 z2:|
|:c2c2B2B2|A2A2 A"^*"Bc^c|d2d2c2c2|B2B2 BABc|
B2B2 d2d2|g2g2 b4|a2a2 f2f2|g4G2 z2:|

